X:245
T: WO SOLCH EIN FEUER NOCH GEDEIHT
N: F0426
O: Europa, Mitteleuropa, Deutschland
R: Vaterlands -, Heimat - Lied, nationalistisch, Trink - Lied
M: 4/4
L: 1/16
K: C
G,2A,2B,2 | C4C4D4D4 | E8z4
E4 | F4E4D4C4 | B,3CD4z4
G4 | F2E2D2C2B,2A,2G,2
G,2 | C4C4D6C2 | B,12A,4 | G,4z6
G,2A,2B,2 | C4C4D6C2 | B,2A,2G,2^F,2G,4z2
G,2 | C4G,4E,4C,4 | G,8C,2
G,2A,2B,2 | C4C4D6C2 | B,2A,2G,2^F,2G,4z2
G,2 | C4G,4E,4C,4 | G,8C,2

